X: 1
T: the Irish Howl(e)    [F]
T: No Power on Earth can e'er divide
C: John Gay 1765
C: chords by Rebecca King 2016
%R: march,reel
Z: 2019 John Chambers <jc:trillian.mit.edu>
N: Tune for the Welsh dance Jac-y-Do or The Jackdaw
S: The Beggar's Opera, scene 15, air 39.
S: https://books.google.com/books?id=OxElDsaw7xUC&pg=PA65
M: 2/4
L: 1/16
K: F
F2 \
|  A2A2 A2GF | B2B2 B2AG | F3G  ABcd | cBAG F3A |
|  AGGF E3F  | G2AB A3B  | ABcd c2G2 | BAGF F4 ||
[| B2B2 B2B2 | c2cB B2A2 | c2c2 c2BA | c2c2 c2BA |
|  f2ed c3d  | cdcd cdcA | BAGF FGAB | c6 |]
%
W: No Power on Earth can e'er divide
W: The Knot that sacred Love hath ty'd.
W: When Parents draw against our Mind,
W: The True-Love's Knot they faster bind.
W:    Oh, oh ray, oh Amborah --- oh, oh, &c.
W:        [Holding Macheath, Peachum pulling her.]
